X:92
T:The Bonny Breastknots (Sussex)
M:4/4
L:1/4
Q:112
K:G
:BGGA/2 B/2|c/2B/2A/2G/2FD|GBGB/2A/2|Gdd>c|
BGGA/2B/2|c/2B/2A/2G/2FD|GBAd/2c/2|BGG2:|
:d>ed>e|d/2c/2B/2A/2G2|ABc/2B/2c/2d/2|eAAB/2c/2|
d>ed>e|d/2c/2B/2A/2G2|AADE/2F/2|GBG2:|
